X: 66
T:Light and Airy (#176)
M:6/8
L:1/8
S:Neil Gow & Sons Complete Repository, Edinburgh 1805
K:G
d3 BdB|GBd gdB|d3 BdB|A2 B c2 e|
d3 BdB|GBd gdB|cac BgB|A2 B c2 e:|
|:gag gdB|gag gba|gag gdB|A2 B c2 e|
gbg ac'a|gbg faf|g>fe d>cB|A2 B c2 e:|
|:dBG G2 B|dBG Bdg|dBG G2 B|A2 B c2 e|
dBG GBd|g>fe dcB|cac BgB|A2 B c2 e:||
%
% "Light and Airy" first appeared in "A Choice Collection of Scots Reels
% or Country Dances & Strathspeys, etc.," published by Robert Ross at
% Edinburgh, 1780.

